trunk/public/assets/images/icons/black/accept/infopage2.svg

<svg width="16" height="16" xmlns="http://www.w3.org/2000/svg" viewBox="0 0 16 16" shape-rendering="geometricPrecision"><defs><mask id="a"><rect fill="#fff" width="100%" height="100%"/><path d="M14.67-1.414l-3.227 3.227-1.69-1.69-2.74 2.743L11.444 7.3l5.97-5.97z"/></mask></defs><path fill="#cb1800" d="M16 1.33L14.67 0l-3.227 3.228-1.69-1.69-1.327 1.33 3.02 3.018"/><path d="M1.81 0v16h12.38V0H1.81zm6.22 1.245c.86 0 1.552.695 1.552 1.55s-.692 1.55-1.552 1.55c-.854 0-1.55-.695-1.55-1.55s.695-1.55 1.55-1.55zm3.055 13.548h-6.17V13.26H6.44V7.082H4.92v-1.15h4.64v7.328h1.525v1.533z" mask="url(#a)"/></svg>

<?xml version="1.0"?><!DOCTYPE svg PUBLIC "-//W3C//DTD SVG 1.1//EN" "http://www.w3.org/Graphics/SVG/1.1/DTD/svg11.dtd"><svg width="16px" height="16px" xmlns="http://www.w3.org/2000/svg" viewBox="0 0 16 16" shape-rendering="geometricPrecision" fill="#000"><defs><mask id="accept-path"><rect fill="#fff" width="100%" height="100%"/><polygon points="14.671,-1.414 11.443,1.813 9.753,0.123 7.012,2.866 11.445,7.299 17.414,1.329 " fill="#000"/></mask></defs><polygon points="16,1.33 14.671,0 11.443,3.228 9.753,1.539 8.426,2.867 11.445,5.886 " fill="#cb1800"/><g mask="url(#accept-path)"><g><g><g><path d="M1.811-0.001v16h12.378v-16H1.811z M8.03,1.245c0.859,0,1.552,0.695,1.552,1.55s-0.692,1.55-1.552,1.55 c-0.854,0-1.549-0.695-1.549-1.55S7.175,1.245,8.03,1.245z M11.085,14.793H4.915V13.26h1.526V7.082H4.919V5.931h4.64v7.329 h1.526V14.793z"/></g></g></g></g></svg>
